{
  "compressionlevel": -1,
  "width": 40,
  "height": 28,
  "infinite": false,
  "orientation": "orthogonal",
  "renderorder": "right-down",
  "tilewidth": 32,
  "tileheight": 32,
  "type": "map",
  "version": "1.10",
  "tiledversion": "1.11.2",
  "nextlayerid": 9,
  "nextobjectid": 400,
  "tilesets": [
    {
      "firstgid": 1,
      "name": "office",
      "image": "../assets/office-cozy.png",
      "imagewidth": 256,
      "imageheight": 160,
      "tilewidth": 32,
      "tileheight": 32,
      "tilecount": 40,
      "columns": 8,
      "margin": 0,
      "spacing": 0
    }
  ],
  "layers": [
    {
      "id": 1,
      "name": "floor",
      "type": "tilelayer",
      "width": 40,
      "height": 28,
      "x": 0,
      "y": 0,
      "opacity": 1,
      "visible": true,
      "data": [
        1,
        2,
        1,
        2,
        1,
        2,
        1,
        2,
        1,
        2,
        1,
        2,
        1,
        2,
        1,
        2,
        1,
        2,
        1,
        2,
        1,
        2,
        1,
        2,
        1,
        2,
        1,
        2,
        1,
        2,
        1,
        2,
        1,
        2,
        1,
        2,
        1,
        2,
        1,
        2,
        2,
        1,
        2,
        1,
        2,
        1,
        2,
        1,
        2,
        1,
        2,
        1,
        2,
        1,
        2,
        1,
        2,
        1,
        2,
        1,
        2,
        1,
        2,
        1,
        2,
        1,
        2,
        1,
        2,
        1,
        2,
        1,
        2,
        1,
        2,
        1,
        2,
        1,
        2,
        1,
        1,
        2,
        1,
        2,
        1,
        2,
        1,
        2,
        1,
        2,
        1,
        2,
        1,
        2,
        1,
        2,
        1,
        2,
        1,
        2,
        1,
        2,
        1,
        2,
        1,
        2,
        1,
        2,
        1,
        2,
        1,
        2,
        1,
        2,
        1,
        2,
        1,
        2,
        1,
        2,
        2,
        1,
        2,
        3,
        3,
        3,
        3,
        3,
        3,
        3,
        3,
        3,
        3,
        3,
        2,
        1,
        2,
        1,
        2,
        1,
        2,
        1,
        2,
        1,
        2,
        1,
        3,
        3,
        3,
        3,
        3,
        3,
        3,
        3,
        3,
        3,
        3,
        1,
        2,
        1,
        1,
        2,
        1,
        3,
        3,
        3,
        3,
        3,
        3,
        3,
        3,
        3,
        3,
        3,
        1,
        2,
        1,
        2,
        1,
        2,
        1,
        2,
        1,
        2,
        1,
        2,
        3,
        3,
        3,
        3,
        3,
        3,
        3,
        3,
        3,
        3,
        3,
        2,
        1,
        2,
        2,
        1,
        2,
        3,
        3,
        3,
        3,
        3,
        3,
        3,
        3,
        3,
        3,
        3,
        2,
        1,
        2,
        1,
        2,
        1,
        2,
        1,
        2,
        1,
        2,
        1,
        3,
        3,
        3,
        3,
        3,
        3,
        3,
        3,
        3,
        3,
        3,
        1,
        2,
        1,
        1,
        2,
        1,
        3,
        3,
        3,
        3,
        3,
        3,
        3,
        3,
        3,
        3,
        3,
        1,
        2,
        1,
        2,
        1,
        2,
        1,
        2,
        1,
        2,
        1,
        2,
        3,
        3,
        3,
        3,
        3,
        3,
        3,
        3,
        3,
        3,
        3,
        2,
        1,
        2,
        2,
        1,
        2,
        3,
        3,
        3,
        3,
        3,
        3,
        3,
        3,
        3,
        3,
        3,
        2,
        1,
        2,
        1,
        2,
        1,
        2,
        1,
        2,
        1,
        2,
        1,
        3,
        3,
        3,
        3,
        3,
        3,
        3,
        3,
        3,
        3,
        3,
        1,
        2,
        1,
        1,
        2,
        1,
        3,
        3,
        3,
        3,
        3,
        3,
        3,
        3,
        3,
        3,
        3,
        1,
        2,
        1,
        2,
        1,
        2,
        1,
        2,
        1,
        2,
        1,
        2,
        3,
        3,
        3,
        3,
        3,
        3,
        3,
        3,
        3,
        3,
        3,
        2,
        1,
        2,
        2,
        1,
        2,
        3,
        3,
        3,
        3,
        3,
        3,
        3,
        3,
        3,
        3,
        3,
        2,
        1,
        2,
        1,
        2,
        1,
        2,
        1,
        2,
        1,
        2,
        1,
        3,
        3,
        3,
        3,
        3,
        3,
        3,
        3,
        3,
        3,
        3,
        1,
        2,
        1,
        1,
        2,
        1,
        2,
        1,
        2,
        1,
        2,
        1,
        2,
        1,
        2,
        1,
        2,
        1,
        2,
        1,
        2,
        1,
        2,
        1,
        2,
        1,
        2,
        1,
        2,
        1,
        2,
        1,
        2,
        1,
        2,
        1,
        2,
        1,
        2,
        1,
        2,
        1,
        2,
        2,
        1,
        2,
        1,
        2,
        1,
        2,
        1,
        2,
        1,
        2,
        1,
        2,
        1,
        2,
        1,
        2,
        1,
        2,
        1,
        2,
        1,
        2,
        1,
        2,
        1,
        2,
        1,
        2,
        1,
        2,
        1,
        2,
        1,
        2,
        1,
        2,
        1,
        2,
        1,
        1,
        2,
        1,
        2,
        1,
        2,
        1,
        2,
        1,
        2,
        1,
        2,
        1,
        2,
        1,
        2,
        1,
        2,
        1,
        2,
        1,
        2,
        1,
        2,
        1,
        2,
        1,
        2,
        1,
        2,
        1,
        2,
        1,
        2,
        1,
        2,
        1,
        2,
        1,
        2,
        2,
        1,
        2,
        1,
        2,
        1,
        2,
        1,
        2,
        1,
        2,
        1,
        2,
        1,
        2,
        1,
        2,
        1,
        2,
        1,
        2,
        1,
        2,
        1,
        2,
        1,
        2,
        1,
        2,
        1,
        2,
        1,
        2,
        1,
        2,
        1,
        2,
        1,
        2,
        1,
        1,
        2,
        1,
        2,
        1,
        2,
        1,
        2,
        1,
        2,
        1,
        2,
        1,
        2,
        1,
        2,
        1,
        2,
        1,
        2,
        1,
        2,
        1,
        2,
        1,
        2,
        1,
        2,
        1,
        2,
        1,
        2,
        1,
        2,
        1,
        2,
        1,
        2,
        1,
        2,
        2,
        1,
        2,
        1,
        2,
        1,
        2,
        1,
        2,
        1,
        2,
        1,
        2,
        1,
        2,
        1,
        2,
        1,
        2,
        1,
        2,
        1,
        2,
        1,
        2,
        1,
        2,
        1,
        2,
        1,
        2,
        1,
        2,
        1,
        2,
        1,
        2,
        1,
        2,
        1,
        1,
        2,
        1,
        2,
        1,
        2,
        1,
        2,
        1,
        2,
        1,
        2,
        1,
        2,
        1,
        2,
        1,
        2,
        1,
        2,
        1,
        2,
        1,
        2,
        1,
        2,
        1,
        2,
        1,
        2,
        1,
        2,
        1,
        2,
        1,
        2,
        1,
        2,
        1,
        2,
        2,
        1,
        2,
        1,
        2,
        1,
        2,
        1,
        2,
        1,
        2,
        1,
        2,
        1,
        2,
        1,
        2,
        1,
        2,
        1,
        2,
        1,
        2,
        1,
        2,
        1,
        2,
        1,
        2,
        1,
        2,
        1,
        2,
        1,
        2,
        1,
        2,
        1,
        2,
        1,
        1,
        2,
        1,
        2,
        1,
        2,
        1,
        2,
        1,
        2,
        1,
        2,
        1,
        2,
        1,
        2,
        1,
        2,
        1,
        2,
        1,
        2,
        1,
        2,
        1,
        2,
        1,
        2,
        1,
        2,
        1,
        2,
        1,
        2,
        1,
        2,
        1,
        2,
        1,
        2,
        2,
        1,
        2,
        1,
        2,
        1,
        2,
        1,
        2,
        1,
        2,
        1,
        2,
        1,
        2,
        1,
        2,
        1,
        2,
        1,
        2,
        1,
        2,
        1,
        2,
        1,
        2,
        1,
        2,
        1,
        2,
        1,
        2,
        1,
        2,
        1,
        2,
        1,
        2,
        1,
        1,
        2,
        1,
        2,
        1,
        2,
        1,
        2,
        1,
        2,
        1,
        2,
        1,
        2,
        1,
        2,
        1,
        2,
        1,
        2,
        1,
        2,
        1,
        2,
        1,
        2,
        1,
        2,
        1,
        2,
        1,
        2,
        1,
        2,
        1,
        2,
        1,
        2,
        1,
        2,
        2,
        1,
        2,
        1,
        2,
        1,
        2,
        1,
        2,
        1,
        2,
        1,
        2,
        1,
        2,
        1,
        2,
        1,
        2,
        1,
        2,
        1,
        2,
        1,
        2,
        1,
        2,
        1,
        2,
        1,
        2,
        1,
        2,
        1,
        2,
        1,
        2,
        1,
        2,
        1,
        1,
        2,
        1,
        2,
        1,
        2,
        1,
        2,
        1,
        2,
        1,
        2,
        1,
        2,
        1,
        2,
        1,
        2,
        1,
        2,
        1,
        2,
        1,
        2,
        1,
        2,
        1,
        2,
        1,
        2,
        1,
        2,
        1,
        2,
        1,
        2,
        1,
        2,
        1,
        2,
        2,
        1,
        2,
        1,
        2,
        1,
        2,
        1,
        2,
        1,
        2,
        1,
        2,
        1,
        2,
        1,
        4,
        4,
        4,
        4,
        4,
        4,
        4,
        4,
        2,
        1,
        2,
        1,
        2,
        1,
        2,
        1,
        2,
        1,
        2,
        1,
        2,
        1,
        2,
        1,
        1,
        2,
        1,
        2,
        1,
        2,
        1,
        2,
        1,
        2,
        1,
        2,
        1,
        2,
        1,
        2,
        4,
        4,
        4,
        4,
        4,
        4,
        4,
        4,
        1,
        2,
        1,
        2,
        1,
        2,
        1,
        2,
        1,
        2,
        1,
        2,
        1,
        2,
        1,
        2,
        2,
        1,
        2,
        1,
        2,
        1,
        2,
        1,
        2,
        1,
        2,
        1,
        2,
        1,
        2,
        1,
        4,
        4,
        4,
        4,
        4,
        4,
        4,
        4,
        2,
        1,
        2,
        1,
        2,
        1,
        2,
        1,
        2,
        1,
        2,
        1,
        2,
        1,
        2,
        1,
        1,
        2,
        1,
        2,
        1,
        2,
        1,
        2,
        1,
        2,
        1,
        2,
        1,
        2,
        1,
        2,
        4,
        4,
        4,
        4,
        4,
        4,
        4,
        4,
        1,
        2,
        1,
        2,
        1,
        2,
        1,
        2,
        1,
        2,
        1,
        2,
        1,
        2,
        1,
        2,
        2,
        1,
        2,
        1,
        2,
        1,
        2,
        1,
        2,
        1,
        2,
        1,
        2,
        1,
        2,
        1,
        2,
        1,
        2,
        1,
        2,
        1,
        2,
        1,
        2,
        1,
        2,
        1,
        2,
        1,
        2,
        1,
        2,
        1,
        2,
        1,
        2,
        1,
        2,
        1
      ]
    },
    {
      "id": 2,
      "name": "rug",
      "type": "tilelayer",
      "width": 40,
      "height": 28,
      "x": 0,
      "y": 0,
      "opacity": 1,
      "visible": true,
      "data": [
        0,
        0,
        0,
        0,
        0,
        0,
        0,
        0,
        0,
        0,
        0,
        0,
        0,
        0,
        0,
        0,
        0,
        0,
        0,
        0,
        0,
        0,
        0,
        0,
        0,
        0,
        0,
        0,
        0,
        0,
        0,
        0,
        0,
        0,
        0,
        0,
        0,
        0,
        0,
        0,
        0,
        0,
        0,
        0,
        0,
        0,
        0,
        0,
        0,
        0,
        0,
        0,
        0,
        0,
        0,
        0,
        0,
        0,
        0,
        0,
        0,
        0,
        0,
        0,
        0,
        0,
        0,
        0,
        0,
        0,
        0,
        0,
        0,
        0,
        0,
        0,
        0,
        0,
        0,
        0,
        0,
        0,
        0,
        0,
        0,
        0,
        0,
        0,
        0,
        0,
        0,
        0,
        0,
        0,
        0,
        0,
        0,
        0,
        0,
        0,
        0,
        0,
        0,
        0,
        0,
        0,
        0,
        0,
        0,
        0,
        0,
        0,
        0,
        0,
        0,
        0,
        0,
        0,
        0,
        0,
        0,
        0,
        0,
        0,
        0,
        0,
        0,
        0,
        0,
        0,
        0,
        0,
        0,
        0,
        0,
        0,
        0,
        0,
        0,
        0,
        0,
        0,
        0,
        0,
        0,
        0,
        0,
        0,
        0,
        0,
        0,
        0,
        0,
        0,
        0,
        0,
        0,
        0,
        0,
        0,
        0,
        0,
        0,
        0,
        0,
        0,
        0,
        0,
        0,
        0,
        0,
        0,
        0,
        0,
        0,
        0,
        10,
        11,
        11,
        11,
        11,
        11,
        11,
        12,
        0,
        0,
        0,
        0,
        0,
        0,
        0,
        0,
        0,
        0,
        0,
        0,
        0,
        0,
        0,
        0,
        0,
        0,
        0,
        0,
        0,
        0,
        0,
        0,
        0,
        0,
        0,
        0,
        0,
        0,
        0,
        0,
        13,
        14,
        14,
        14,
        14,
        14,
        14,
        15,
        0,
        0,
        0,
        0,
        0,
        0,
        0,
        0,
        0,
        0,
        0,
        0,
        0,
        0,
        0,
        0,
        0,
        0,
        0,
        0,
        0,
        0,
        0,
        0,
        0,
        0,
        0,
        0,
        0,
        0,
        0,
        0,
        13,
        14,
        14,
        14,
        14,
        14,
        14,
        15,
        0,
        0,
        0,
        0,
        0,
        0,
        0,
        0,
        0,
        0,
        0,
        0,
        0,
        0,
        0,
        0,
        0,
        0,
        0,
        0,
        0,
        0,
        0,
        0,
        0,
        0,
        0,
        0,
        0,
        0,
        0,
        0,
        13,
        14,
        14,
        14,
        14,
        14,
        14,
        15,
        0,
        0,
        0,
        0,
        0,
        0,
        0,
        0,
        0,
        0,
        0,
        0,
        0,
        0,
        0,
        0,
        0,
        0,
        0,
        0,
        0,
        0,
        0,
        0,
        0,
        0,
        0,
        0,
        0,
        0,
        0,
        0,
        16,
        17,
        17,
        17,
        17,
        17,
        17,
        18,
        0,
        0,
        0,
        0,
        0,
        0,
        0,
        0,
        0,
        0,
        0,
        0,
        0,
        0,
        0,
        0,
        0,
        0,
        0,
        0,
        0,
        0,
        0,
        0,
        0,
        0,
        0,
        0,
        0,
        0,
        0,
        0,
        0,
        0,
        0,
        0,
        0,
        0,
        0,
        0,
        0,
        0,
        0,
        0,
        0,
        0,
        0,
        0,
        0,
        0,
        0,
        0,
        0,
        0,
        0,
        0,
        0,
        0,
        0,
        0,
        0,
        0,
        0,
        0,
        0,
        0,
        0,
        0,
        0,
        0,
        0,
        0,
        0,
        0,
        0,
        0,
        0,
        0,
        0,
        0,
        0,
        0,
        0,
        0,
        0,
        0,
        0,
        0,
        0,
        0,
        0,
        0,
        0,
        0,
        0,
        0,
        0,
        0,
        0,
        0,
        0,
        0,
        0,
        0,
        0,
        0,
        0,
        0,
        0,
        0,
        0,
        0,
        0,
        0,
        0,
        0,
        0,
        0,
        0,
        0,
        0,
        0,
        0,
        0,
        0,
        0,
        0,
        0,
        0,
        0,
        0,
        0,
        0,
        0,
        0,
        0,
        0,
        0,
        0,
        0,
        0,
        0,
        0,
        0,
        0,
        0,
        0,
        0,
        0,
        0,
        0,
        0,
        0,
        0,
        0,
        0,
        0,
        0,
        0,
        0,
        0,
        0,
        0,
        0,
        0,
        0,
        0,
        0,
        0,
        0,
        0,
        0,
        0,
        0,
        0,
        0,
        0,
        0,
        0,
        0,
        0,
        0,
        0,
        0,
        0,
        0,
        0,
        0,
        0,
        0,
        0,
        0,
        0,
        0,
        0,
        0,
        0,
        0,
        0,
        0,
        0,
        0,
        0,
        0,
        0,
        0,
        0,
        0,
        0,
        0,
        0,
        0,
        0,
        0,
        0,
        0,
        0,
        0,
        0,
        0,
        0,
        0,
        0,
        0,
        0,
        0,
        0,
        0,
        0,
        0,
        0,
        0,
        0,
        0,
        0,
        0,
        0,
        0,
        0,
        0,
        0,
        0,
        0,
        0,
        0,
        0,
        0,
        0,
        0,
        0,
        0,
        0,
        0,
        0,
        0,
        0,
        0,
        0,
        0,
        0,
        0,
        0,
        0,
        0,
        0,
        0,
        0,
        0,
        0,
        0,
        0,
        0,
        0,
        0,
        0,
        0,
        0,
        0,
        0,
        0,
        0,
        0,
        0,
        0,
        0,
        0,
        0,
        0,
        0,
        0,
        0,
        0,
        0,
        0,
        0,
        0,
        0,
        0,
        0,
        0,
        0,
        0,
        0,
        0,
        0,
        0,
        0,
        0,
        0,
        0,
        0,
        0,
        0,
        0,
        0,
        0,
        0,
        0,
        0,
        0,
        0,
        0,
        0,
        0,
        0,
        0,
        0,
        0,
        0,
        0,
        0,
        0,
        0,
        0,
        0,
        0,
        0,
        0,
        0,
        0,
        0,
        0,
        0,
        0,
        0,
        0,
        0,
        0,
        0,
        0,
        0,
        0,
        0,
        0,
        0,
        0,
        0,
        0,
        0,
        0,
        0,
        0,
        0,
        0,
        0,
        0,
        0,
        0,
        0,
        0,
        0,
        0,
        0,
        0,
        0,
        0,
        0,
        0,
        0,
        0,
        0,
        0,
        0,
        0,
        0,
        0,
        0,
        0,
        0,
        0,
        0,
        0,
        0,
        0,
        0,
        0,
        0,
        0,
        0,
        0,
        0,
        0,
        0,
        0,
        0,
        0,
        0,
        0,
        0,
        0,
        0,
        0,
        0,
        0,
        0,
        0,
        0,
        0,
        0,
        0,
        0,
        0,
        0,
        0,
        0,
        0,
        0,
        0,
        0,
        0,
        0,
        0,
        0,
        0,
        0,
        0,
        0,
        0,
        0,
        0,
        0,
        0,
        0,
        0,
        0,
        0,
        0,
        0,
        0,
        0,
        0,
        0,
        0,
        0,
        0,
        0,
        0,
        0,
        0,
        0,
        0,
        0,
        0,
        0,
        0,
        0,
        0,
        0,
        0,
        0,
        0,
        0,
        0,
        0,
        0,
        0,
        0,
        0,
        0,
        0,
        0,
        0,
        0,
        0,
        0,
        0,
        0,
        0,
        0,
        0,
        0,
        0,
        0,
        0,
        0,
        0,
        0,
        0,
        0,
        0,
        0,
        0,
        0,
        0,
        0,
        0,
        0,
        0,
        0,
        0,
        0,
        0,
        0,
        0,
        0,
        0,
        0,
        0,
        0,
        0,
        0,
        0,
        0,
        0,
        0,
        0,
        0,
        0,
        0,
        0,
        0,
        0,
        0,
        0,
        0,
        0,
        0,
        0,
        0,
        0,
        0,
        0,
        0,
        0,
        0,
        0,
        0,
        0,
        0,
        0,
        0,
        0,
        0,
        0,
        0,
        0,
        0,
        0,
        0,
        0,
        0,
        0,
        0,
        0,
        0,
        0,
        0,
        0,
        0,
        0,
        0,
        0,
        0,
        0,
        0,
        0,
        0,
        0,
        0,
        0,
        0,
        0,
        0,
        0,
        0,
        0,
        0,
        0,
        0,
        0,
        0,
        0,
        0,
        0,
        0,
        0,
        0,
        0,
        0,
        0,
        0,
        0,
        0,
        0,
        0,
        0,
        0,
        0,
        0,
        0,
        0,
        0,
        0,
        0,
        0,
        0,
        0,
        0,
        0,
        0,
        0,
        0,
        0,
        0,
        0,
        0,
        0,
        0,
        0,
        0,
        0,
        0,
        0,
        0,
        0,
        0,
        0,
        0,
        0,
        0,
        0,
        0,
        0,
        0,
        0,
        0,
        0,
        0,
        0,
        0,
        0,
        0,
        0,
        0,
        0,
        0,
        0,
        0,
        0,
        0,
        0,
        0,
        0,
        0,
        0,
        0,
        0,
        0,
        0,
        0,
        0,
        0,
        0,
        0,
        0,
        0,
        0,
        0,
        0,
        0,
        0,
        0,
        0,
        0,
        0,
        0,
        0,
        0,
        0,
        0,
        0,
        0,
        0,
        0,
        0,
        0,
        0,
        0,
        0,
        0,
        0,
        0,
        0,
        0,
        0,
        0,
        0,
        0,
        0,
        0,
        0,
        0,
        0,
        0,
        0,
        0,
        0,
        0,
        0,
        0,
        0,
        0,
        0,
        0,
        0,
        0,
        0,
        0,
        0,
        0,
        0,
        0,
        0,
        0,
        0,
        0,
        0,
        0,
        0,
        0,
        0,
        0,
        0,
        0,
        0,
        0,
        0,
        0,
        0,
        0,
        0,
        0,
        0,
        0,
        0,
        0,
        0,
        0,
        0,
        0,
        0,
        0,
        0,
        0,
        0,
        0,
        0,
        0,
        0,
        0,
        0,
        0,
        0,
        0,
        0,
        0
      ]
    },
    {
      "id": 3,
      "name": "furniture",
      "type": "tilelayer",
      "width": 40,
      "height": 28,
      "x": 0,
      "y": 0,
      "opacity": 1,
      "visible": true,
      "data": [
        5,
        5,
        5,
        5,
        5,
        5,
        6,
        6,
        5,
        5,
        7,
        5,
        5,
        5,
        5,
        5,
        5,
        5,
        6,
        6,
        5,
        6,
        6,
        5,
        5,
        5,
        5,
        5,
        5,
        5,
        7,
        5,
        5,
        6,
        6,
        5,
        5,
        5,
        5,
        5,
        5,
        0,
        0,
        0,
        0,
        0,
        0,
        0,
        0,
        0,
        0,
        0,
        0,
        0,
        0,
        0,
        31,
        0,
        0,
        0,
        0,
        0,
        0,
        31,
        0,
        0,
        0,
        0,
        0,
        0,
        0,
        0,
        0,
        0,
        0,
        0,
        0,
        0,
        0,
        5,
        5,
        0,
        5,
        5,
        7,
        5,
        5,
        5,
        8,
        5,
        5,
        5,
        6,
        5,
        5,
        35,
        0,
        0,
        21,
        22,
        21,
        22,
        0,
        0,
        29,
        5,
        5,
        7,
        5,
        5,
        5,
        8,
        5,
        5,
        5,
        6,
        5,
        5,
        0,
        5,
        5,
        0,
        5,
        29,
        0,
        0,
        0,
        0,
        0,
        0,
        0,
        0,
        0,
        0,
        5,
        0,
        0,
        0,
        0,
        0,
        0,
        0,
        0,
        0,
        0,
        5,
        29,
        0,
        0,
        0,
        0,
        0,
        0,
        0,
        0,
        0,
        0,
        5,
        0,
        5,
        5,
        0,
        5,
        0,
        0,
        0,
        0,
        0,
        0,
        0,
        0,
        0,
        0,
        0,
        5,
        0,
        0,
        0,
        0,
        0,
        0,
        0,
        0,
        0,
        0,
        5,
        0,
        0,
        0,
        0,
        0,
        0,
        0,
        0,
        0,
        0,
        0,
        5,
        0,
        5,
        5,
        0,
        5,
        0,
        0,
        0,
        0,
        27,
        27,
        0,
        0,
        0,
        0,
        0,
        5,
        0,
        0,
        0,
        0,
        0,
        0,
        0,
        0,
        0,
        0,
        5,
        0,
        0,
        0,
        0,
        27,
        27,
        0,
        0,
        0,
        0,
        0,
        5,
        0,
        5,
        5,
        0,
        5,
        0,
        0,
        0,
        0,
        23,
        24,
        0,
        0,
        0,
        0,
        0,
        5,
        0,
        0,
        0,
        0,
        0,
        0,
        0,
        0,
        0,
        0,
        5,
        0,
        0,
        0,
        0,
        23,
        24,
        0,
        0,
        0,
        0,
        0,
        5,
        0,
        5,
        5,
        0,
        5,
        0,
        0,
        0,
        0,
        28,
        28,
        0,
        0,
        0,
        0,
        0,
        5,
        0,
        0,
        0,
        0,
        0,
        0,
        0,
        0,
        0,
        0,
        5,
        0,
        0,
        0,
        0,
        28,
        28,
        0,
        0,
        0,
        0,
        0,
        5,
        0,
        5,
        6,
        0,
        5,
        32,
        0,
        0,
        0,
        0,
        0,
        0,
        0,
        0,
        0,
        0,
        5,
        0,
        0,
        34,
        0,
        0,
        0,
        0,
        34,
        0,
        0,
        5,
        32,
        0,
        0,
        0,
        0,
        0,
        0,
        0,
        0,
        0,
        0,
        5,
        0,
        6,
        6,
        0,
        5,
        0,
        0,
        0,
        0,
        0,
        0,
        0,
        0,
        0,
        0,
        30,
        5,
        36,
        0,
        0,
        0,
        0,
        0,
        0,
        0,
        0,
        36,
        5,
        0,
        0,
        0,
        0,
        0,
        0,
        0,
        0,
        0,
        0,
        30,
        5,
        0,
        6,
        5,
        0,
        5,
        5,
        5,
        5,
        5,
        0,
        0,
        0,
        5,
        5,
        5,
        5,
        5,
        0,
        0,
        0,
        0,
        0,
        0,
        0,
        0,
        0,
        0,
        5,
        5,
        5,
        5,
        5,
        0,
        0,
        0,
        5,
        5,
        5,
        5,
        5,
        0,
        5,
        5,
        0,
        0,
        0,
        0,
        0,
        0,
        0,
        0,
        0,
        0,
        0,
        0,
        0,
        0,
        0,
        0,
        0,
        0,
        0,
        0,
        0,
        0,
        0,
        0,
        0,
        0,
        0,
        0,
        0,
        0,
        0,
        0,
        0,
        0,
        0,
        0,
        0,
        0,
        5,
        5,
        29,
        0,
        0,
        0,
        0,
        0,
        0,
        0,
        0,
        0,
        0,
        0,
        0,
        35,
        0,
        36,
        36,
        0,
        0,
        0,
        0,
        36,
        36,
        0,
        35,
        0,
        0,
        0,
        0,
        0,
        0,
        0,
        0,
        0,
        0,
        0,
        0,
        29,
        5,
        5,
        0,
        0,
        0,
        0,
        0,
        0,
        0,
        0,
        0,
        0,
        0,
        0,
        0,
        0,
        0,
        0,
        0,
        0,
        0,
        0,
        0,
        0,
        0,
        0,
        0,
        0,
        0,
        0,
        0,
        0,
        0,
        0,
        0,
        0,
        0,
        0,
        0,
        0,
        5,
        5,
        0,
        0,
        0,
        19,
        20,
        0,
        32,
        0,
        0,
        0,
        19,
        20,
        0,
        30,
        0,
        0,
        0,
        0,
        0,
        0,
        0,
        0,
        0,
        0,
        19,
        20,
        0,
        32,
        0,
        0,
        0,
        19,
        20,
        0,
        30,
        0,
        0,
        0,
        5,
        5,
        0,
        0,
        0,
        28,
        0,
        0,
        0,
        0,
        0,
        0,
        28,
        0,
        0,
        0,
        0,
        0,
        0,
        0,
        0,
        0,
        0,
        0,
        0,
        0,
        28,
        0,
        0,
        0,
        0,
        0,
        0,
        28,
        0,
        0,
        0,
        0,
        0,
        0,
        5,
        5,
        0,
        0,
        0,
        0,
        0,
        0,
        0,
        0,
        0,
        0,
        0,
        0,
        0,
        0,
        0,
        0,
        0,
        0,
        0,
        0,
        0,
        0,
        0,
        0,
        0,
        0,
        0,
        0,
        0,
        0,
        0,
        0,
        0,
        0,
        0,
        0,
        0,
        0,
        5,
        5,
        0,
        0,
        0,
        0,
        0,
        0,
        0,
        0,
        0,
        0,
        0,
        0,
        0,
        0,
        0,
        0,
        0,
        0,
        0,
        0,
        0,
        0,
        0,
        0,
        0,
        0,
        0,
        0,
        0,
        0,
        0,
        0,
        0,
        0,
        0,
        0,
        0,
        0,
        5,
        6,
        0,
        0,
        0,
        0,
        0,
        0,
        0,
        0,
        0,
        0,
        0,
        0,
        0,
        0,
        0,
        36,
        36,
        0,
        0,
        0,
        0,
        36,
        36,
        0,
        0,
        0,
        0,
        0,
        0,
        0,
        0,
        0,
        0,
        0,
        0,
        0,
        0,
        0,
        6,
        6,
        0,
        0,
        0,
        0,
        0,
        0,
        0,
        0,
        0,
        0,
        0,
        0,
        0,
        0,
        0,
        0,
        0,
        0,
        0,
        0,
        0,
        0,
        0,
        0,
        0,
        0,
        0,
        0,
        0,
        0,
        0,
        0,
        0,
        0,
        0,
        0,
        0,
        0,
        6,
        5,
        0,
        0,
        0,
        19,
        20,
        0,
        32,
        0,
        0,
        0,
        19,
        20,
        0,
        30,
        0,
        0,
        0,
        0,
        0,
        0,
        0,
        0,
        0,
        0,
        19,
        20,
        0,
        32,
        0,
        0,
        0,
        19,
        20,
        0,
        30,
        0,
        0,
        0,
        5,
        5,
        0,
        0,
        0,
        28,
        0,
        0,
        0,
        0,
        0,
        0,
        28,
        0,
        0,
        0,
        0,
        0,
        0,
        0,
        0,
        0,
        0,
        0,
        0,
        0,
        28,
        0,
        0,
        0,
        0,
        0,
        0,
        28,
        0,
        0,
        0,
        0,
        0,
        0,
        5,
        5,
        0,
        0,
        0,
        0,
        0,
        0,
        0,
        0,
        0,
        0,
        0,
        0,
        0,
        0,
        0,
        0,
        0,
        0,
        0,
        0,
        0,
        0,
        0,
        0,
        0,
        0,
        0,
        0,
        0,
        0,
        0,
        0,
        0,
        0,
        0,
        0,
        0,
        0,
        5,
        5,
        0,
        0,
        0,
        0,
        0,
        0,
        0,
        0,
        0,
        0,
        0,
        0,
        0,
        0,
        0,
        0,
        34,
        0,
        0,
        0,
        0,
        34,
        0,
        0,
        0,
        0,
        0,
        0,
        0,
        0,
        0,
        0,
        0,
        0,
        0,
        0,
        0,
        0,
        5,
        5,
        0,
        0,
        0,
        0,
        0,
        0,
        0,
        0,
        0,
        0,
        0,
        0,
        0,
        0,
        0,
        0,
        0,
        0,
        0,
        0,
        0,
        0,
        0,
        0,
        0,
        0,
        0,
        0,
        0,
        0,
        0,
        0,
        0,
        0,
        0,
        0,
        0,
        0,
        5,
        5,
        29,
        0,
        0,
        0,
        0,
        0,
        0,
        0,
        0,
        0,
        0,
        0,
        0,
        0,
        0,
        0,
        33,
        25,
        26,
        25,
        26,
        32,
        0,
        0,
        0,
        0,
        0,
        0,
        0,
        0,
        0,
        0,
        0,
        0,
        0,
        0,
        0,
        29,
        5,
        5,
        0,
        0,
        0,
        0,
        0,
        0,
        0,
        0,
        0,
        0,
        0,
        0,
        0,
        0,
        0,
        0,
        0,
        0,
        0,
        0,
        0,
        0,
        0,
        0,
        0,
        0,
        0,
        0,
        0,
        0,
        0,
        0,
        0,
        0,
        0,
        0,
        0,
        0,
        5,
        5,
        5,
        5,
        5,
        5,
        5,
        5,
        5,
        6,
        6,
        5,
        5,
        5,
        5,
        5,
        5,
        5,
        5,
        5,
        5,
        5,
        5,
        5,
        5,
        5,
        5,
        5,
        5,
        5,
        5,
        6,
        6,
        5,
        5,
        5,
        5,
        5,
        5,
        5,
        5
      ]
    },
    {
      "id": 4,
      "name": "collision",
      "type": "tilelayer",
      "width": 40,
      "height": 28,
      "x": 0,
      "y": 0,
      "opacity": 1,
      "visible": false,
      "data": [
        2,
        2,
        2,
        2,
        2,
        2,
        2,
        2,
        2,
        2,
        2,
        2,
        2,
        2,
        2,
        2,
        2,
        2,
        2,
        2,
        2,
        2,
        2,
        2,
        2,
        2,
        2,
        2,
        2,
        2,
        2,
        2,
        2,
        2,
        2,
        2,
        2,
        2,
        2,
        2,
        2,
        0,
        0,
        0,
        0,
        0,
        0,
        0,
        0,
        0,
        0,
        0,
        0,
        0,
        0,
        0,
        2,
        0,
        0,
        0,
        0,
        0,
        0,
        2,
        0,
        0,
        0,
        0,
        0,
        0,
        0,
        0,
        0,
        0,
        0,
        0,
        0,
        0,
        0,
        2,
        2,
        0,
        2,
        2,
        2,
        2,
        2,
        2,
        2,
        2,
        2,
        2,
        2,
        2,
        2,
        2,
        0,
        0,
        2,
        2,
        2,
        2,
        0,
        0,
        2,
        2,
        2,
        2,
        2,
        2,
        2,
        2,
        2,
        2,
        2,
        2,
        2,
        2,
        0,
        2,
        2,
        0,
        2,
        2,
        0,
        0,
        0,
        0,
        0,
        0,
        0,
        0,
        0,
        0,
        2,
        0,
        0,
        0,
        0,
        0,
        0,
        0,
        0,
        0,
        0,
        2,
        2,
        0,
        0,
        0,
        0,
        0,
        0,
        0,
        0,
        0,
        0,
        2,
        0,
        2,
        2,
        0,
        2,
        0,
        0,
        0,
        0,
        0,
        0,
        0,
        0,
        0,
        0,
        0,
        2,
        0,
        0,
        0,
        0,
        0,
        0,
        0,
        0,
        0,
        0,
        2,
        0,
        0,
        0,
        0,
        0,
        0,
        0,
        0,
        0,
        0,
        0,
        2,
        0,
        2,
        2,
        0,
        2,
        0,
        0,
        0,
        0,
        0,
        0,
        0,
        0,
        0,
        0,
        0,
        2,
        0,
        0,
        0,
        0,
        0,
        0,
        0,
        0,
        0,
        0,
        2,
        0,
        0,
        0,
        0,
        0,
        0,
        0,
        0,
        0,
        0,
        0,
        2,
        0,
        2,
        2,
        0,
        2,
        0,
        0,
        0,
        0,
        2,
        2,
        0,
        0,
        0,
        0,
        0,
        2,
        0,
        0,
        0,
        0,
        0,
        0,
        0,
        0,
        0,
        0,
        2,
        0,
        0,
        0,
        0,
        2,
        2,
        0,
        0,
        0,
        0,
        0,
        2,
        0,
        2,
        2,
        0,
        2,
        0,
        0,
        0,
        0,
        0,
        0,
        0,
        0,
        0,
        0,
        0,
        2,
        0,
        0,
        0,
        0,
        0,
        0,
        0,
        0,
        0,
        0,
        2,
        0,
        0,
        0,
        0,
        0,
        0,
        0,
        0,
        0,
        0,
        0,
        2,
        0,
        2,
        2,
        0,
        2,
        2,
        0,
        0,
        0,
        0,
        0,
        0,
        0,
        0,
        0,
        0,
        2,
        0,
        0,
        0,
        0,
        0,
        0,
        0,
        0,
        0,
        0,
        2,
        2,
        0,
        0,
        0,
        0,
        0,
        0,
        0,
        0,
        0,
        0,
        2,
        0,
        2,
        2,
        0,
        2,
        0,
        0,
        0,
        0,
        0,
        0,
        0,
        0,
        0,
        0,
        2,
        2,
        2,
        0,
        0,
        0,
        0,
        0,
        0,
        0,
        0,
        2,
        2,
        0,
        0,
        0,
        0,
        0,
        0,
        0,
        0,
        0,
        0,
        2,
        2,
        0,
        2,
        2,
        0,
        2,
        2,
        2,
        2,
        2,
        0,
        0,
        0,
        2,
        2,
        2,
        2,
        2,
        0,
        0,
        0,
        0,
        0,
        0,
        0,
        0,
        0,
        0,
        2,
        2,
        2,
        2,
        2,
        0,
        0,
        0,
        2,
        2,
        2,
        2,
        2,
        0,
        2,
        2,
        0,
        0,
        0,
        0,
        0,
        0,
        0,
        0,
        0,
        0,
        0,
        0,
        0,
        0,
        0,
        0,
        0,
        0,
        0,
        0,
        0,
        0,
        0,
        0,
        0,
        0,
        0,
        0,
        0,
        0,
        0,
        0,
        0,
        0,
        0,
        0,
        0,
        0,
        2,
        2,
        2,
        0,
        0,
        0,
        0,
        0,
        0,
        0,
        0,
        0,
        0,
        0,
        0,
        2,
        0,
        2,
        2,
        0,
        0,
        0,
        0,
        2,
        2,
        0,
        2,
        0,
        0,
        0,
        0,
        0,
        0,
        0,
        0,
        0,
        0,
        0,
        0,
        2,
        2,
        2,
        0,
        0,
        0,
        0,
        0,
        0,
        0,
        0,
        0,
        0,
        0,
        0,
        0,
        0,
        0,
        0,
        0,
        0,
        0,
        0,
        0,
        0,
        0,
        0,
        0,
        0,
        0,
        0,
        0,
        0,
        0,
        0,
        0,
        0,
        0,
        0,
        0,
        0,
        2,
        2,
        0,
        0,
        0,
        2,
        2,
        0,
        2,
        0,
        0,
        0,
        2,
        2,
        0,
        2,
        0,
        0,
        0,
        0,
        0,
        0,
        0,
        0,
        0,
        0,
        2,
        2,
        0,
        2,
        0,
        0,
        0,
        2,
        2,
        0,
        2,
        0,
        0,
        0,
        2,
        2,
        0,
        0,
        0,
        0,
        0,
        0,
        0,
        0,
        0,
        0,
        0,
        0,
        0,
        0,
        0,
        0,
        0,
        0,
        0,
        0,
        0,
        0,
        0,
        0,
        0,
        0,
        0,
        0,
        0,
        0,
        0,
        0,
        0,
        0,
        0,
        0,
        0,
        0,
        2,
        2,
        0,
        0,
        0,
        0,
        0,
        0,
        0,
        0,
        0,
        0,
        0,
        0,
        0,
        0,
        0,
        0,
        0,
        0,
        0,
        0,
        0,
        0,
        0,
        0,
        0,
        0,
        0,
        0,
        0,
        0,
        0,
        0,
        0,
        0,
        0,
        0,
        0,
        0,
        2,
        2,
        0,
        0,
        0,
        0,
        0,
        0,
        0,
        0,
        0,
        0,
        0,
        0,
        0,
        0,
        0,
        0,
        0,
        0,
        0,
        0,
        0,
        0,
        0,
        0,
        0,
        0,
        0,
        0,
        0,
        0,
        0,
        0,
        0,
        0,
        0,
        0,
        0,
        0,
        2,
        2,
        0,
        0,
        0,
        0,
        0,
        0,
        0,
        0,
        0,
        0,
        0,
        0,
        0,
        0,
        0,
        2,
        2,
        0,
        0,
        0,
        0,
        2,
        2,
        0,
        0,
        0,
        0,
        0,
        0,
        0,
        0,
        0,
        0,
        0,
        0,
        0,
        0,
        0,
        2,
        2,
        0,
        0,
        0,
        0,
        0,
        0,
        0,
        0,
        0,
        0,
        0,
        0,
        0,
        0,
        0,
        0,
        0,
        0,
        0,
        0,
        0,
        0,
        0,
        0,
        0,
        0,
        0,
        0,
        0,
        0,
        0,
        0,
        0,
        0,
        0,
        0,
        0,
        0,
        2,
        2,
        0,
        0,
        0,
        2,
        2,
        0,
        2,
        0,
        0,
        0,
        2,
        2,
        0,
        2,
        0,
        0,
        0,
        0,
        0,
        0,
        0,
        0,
        0,
        0,
        2,
        2,
        0,
        2,
        0,
        0,
        0,
        2,
        2,
        0,
        2,
        0,
        0,
        0,
        2,
        2,
        0,
        0,
        0,
        0,
        0,
        0,
        0,
        0,
        0,
        0,
        0,
        0,
        0,
        0,
        0,
        0,
        0,
        0,
        0,
        0,
        0,
        0,
        0,
        0,
        0,
        0,
        0,
        0,
        0,
        0,
        0,
        0,
        0,
        0,
        0,
        0,
        0,
        0,
        2,
        2,
        0,
        0,
        0,
        0,
        0,
        0,
        0,
        0,
        0,
        0,
        0,
        0,
        0,
        0,
        0,
        0,
        0,
        0,
        0,
        0,
        0,
        0,
        0,
        0,
        0,
        0,
        0,
        0,
        0,
        0,
        0,
        0,
        0,
        0,
        0,
        0,
        0,
        0,
        2,
        2,
        0,
        0,
        0,
        0,
        0,
        0,
        0,
        0,
        0,
        0,
        0,
        0,
        0,
        0,
        0,
        0,
        0,
        0,
        0,
        0,
        0,
        0,
        0,
        0,
        0,
        0,
        0,
        0,
        0,
        0,
        0,
        0,
        0,
        0,
        0,
        0,
        0,
        0,
        2,
        2,
        0,
        0,
        0,
        0,
        0,
        0,
        0,
        0,
        0,
        0,
        0,
        0,
        0,
        0,
        0,
        0,
        0,
        0,
        0,
        0,
        0,
        0,
        0,
        0,
        0,
        0,
        0,
        0,
        0,
        0,
        0,
        0,
        0,
        0,
        0,
        0,
        0,
        0,
        2,
        2,
        2,
        0,
        0,
        0,
        0,
        0,
        0,
        0,
        0,
        0,
        0,
        0,
        0,
        0,
        0,
        0,
        2,
        2,
        2,
        2,
        2,
        2,
        0,
        0,
        0,
        0,
        0,
        0,
        0,
        0,
        0,
        0,
        0,
        0,
        0,
        0,
        0,
        2,
        2,
        2,
        0,
        0,
        0,
        0,
        0,
        0,
        0,
        0,
        0,
        0,
        0,
        0,
        0,
        0,
        0,
        0,
        0,
        0,
        0,
        0,
        0,
        0,
        0,
        0,
        0,
        0,
        0,
        0,
        0,
        0,
        0,
        0,
        0,
        0,
        0,
        0,
        0,
        0,
        2,
        2,
        2,
        2,
        2,
        2,
        2,
        2,
        2,
        2,
        2,
        2,
        2,
        2,
        2,
        2,
        2,
        2,
        2,
        2,
        2,
        2,
        2,
        2,
        2,
        2,
        2,
        2,
        2,
        2,
        2,
        2,
        2,
        2,
        2,
        2,
        2,
        2,
        2,
        2,
        2
      ]
    },
    {
      "id": 5,
      "name": "zones",
      "type": "objectgroup",
      "draworder": "topdown",
      "opacity": 1,
      "visible": true,
      "objects": [
        {
          "id": 1,
          "name": "Cedar room",
          "type": "",
          "x": 96,
          "y": 96,
          "width": 352,
          "height": 256,
          "rotation": 0,
          "visible": true,
          "properties": [
            {
              "name": "zoneId",
              "type": "string",
              "value": "cedar"
            },
            {
              "name": "kind",
              "type": "string",
              "value": "meeting"
            }
          ]
        },
        {
          "id": 2,
          "name": "Fern room",
          "type": "",
          "x": 832,
          "y": 96,
          "width": 352,
          "height": 256,
          "rotation": 0,
          "visible": true,
          "properties": [
            {
              "name": "zoneId",
              "type": "string",
              "value": "fern"
            },
            {
              "name": "kind",
              "type": "string",
              "value": "meeting"
            }
          ]
        },
        {
          "id": 3,
          "name": "Desk 1",
          "type": "",
          "x": 96,
          "y": 416,
          "width": 160,
          "height": 128,
          "rotation": 0,
          "visible": true,
          "properties": [
            {
              "name": "zoneId",
              "type": "string",
              "value": "desk-1"
            },
            {
              "name": "kind",
              "type": "string",
              "value": "desk"
            }
          ]
        },
        {
          "id": 4,
          "name": "Desk 2",
          "type": "",
          "x": 320,
          "y": 416,
          "width": 160,
          "height": 128,
          "rotation": 0,
          "visible": true,
          "properties": [
            {
              "name": "zoneId",
              "type": "string",
              "value": "desk-2"
            },
            {
              "name": "kind",
              "type": "string",
              "value": "desk"
            }
          ]
        },
        {
          "id": 5,
          "name": "Desk 3",
          "type": "",
          "x": 768,
          "y": 416,
          "width": 160,
          "height": 128,
          "rotation": 0,
          "visible": true,
          "properties": [
            {
              "name": "zoneId",
              "type": "string",
              "value": "desk-3"
            },
            {
              "name": "kind",
              "type": "string",
              "value": "desk"
            }
          ]
        },
        {
          "id": 6,
          "name": "Desk 4",
          "type": "",
          "x": 992,
          "y": 416,
          "width": 160,
          "height": 128,
          "rotation": 0,
          "visible": true,
          "properties": [
            {
              "name": "zoneId",
              "type": "string",
              "value": "desk-4"
            },
            {
              "name": "kind",
              "type": "string",
              "value": "desk"
            }
          ]
        },
        {
          "id": 7,
          "name": "Desk 5",
          "type": "",
          "x": 96,
          "y": 608,
          "width": 160,
          "height": 128,
          "rotation": 0,
          "visible": true,
          "properties": [
            {
              "name": "zoneId",
              "type": "string",
              "value": "desk-5"
            },
            {
              "name": "kind",
              "type": "string",
              "value": "desk"
            }
          ]
        },
        {
          "id": 8,
          "name": "Desk 6",
          "type": "",
          "x": 320,
          "y": 608,
          "width": 160,
          "height": 128,
          "rotation": 0,
          "visible": true,
          "properties": [
            {
              "name": "zoneId",
              "type": "string",
              "value": "desk-6"
            },
            {
              "name": "kind",
              "type": "string",
              "value": "desk"
            }
          ]
        },
        {
          "id": 9,
          "name": "Desk 7",
          "type": "",
          "x": 768,
          "y": 608,
          "width": 160,
          "height": 128,
          "rotation": 0,
          "visible": true,
          "properties": [
            {
              "name": "zoneId",
              "type": "string",
              "value": "desk-7"
            },
            {
              "name": "kind",
              "type": "string",
              "value": "desk"
            }
          ]
        },
        {
          "id": 10,
          "name": "Desk 8",
          "type": "",
          "x": 992,
          "y": 608,
          "width": 160,
          "height": 128,
          "rotation": 0,
          "visible": true,
          "properties": [
            {
              "name": "zoneId",
              "type": "string",
              "value": "desk-8"
            },
            {
              "name": "kind",
              "type": "string",
              "value": "desk"
            }
          ]
        }
      ]
    },
    {
      "id": 6,
      "name": "props",
      "type": "objectgroup",
      "draworder": "topdown",
      "opacity": 1,
      "visible": true,
      "objects": [
        {
          "id": 200,
          "name": "mug",
          "point": true,
          "x": 244,
          "y": 208,
          "width": 0,
          "height": 0,
          "rotation": 0,
          "visible": true,
          "properties": [
            {
              "name": "prop",
              "type": "string",
              "value": "mug"
            }
          ]
        },
        {
          "id": 201,
          "name": "notepad",
          "point": true,
          "x": 270,
          "y": 212,
          "width": 0,
          "height": 0,
          "rotation": 0,
          "visible": true,
          "properties": [
            {
              "name": "prop",
              "type": "string",
              "value": "notepad"
            }
          ]
        },
        {
          "id": 202,
          "name": "succulent",
          "point": true,
          "x": 112,
          "y": 264,
          "width": 0,
          "height": 0,
          "rotation": 0,
          "visible": true,
          "properties": [
            {
              "name": "prop",
              "type": "string",
              "value": "succulent"
            }
          ]
        },
        {
          "id": 203,
          "name": "mug",
          "point": true,
          "x": 980,
          "y": 208,
          "width": 0,
          "height": 0,
          "rotation": 0,
          "visible": true,
          "properties": [
            {
              "name": "prop",
              "type": "string",
              "value": "mug"
            }
          ]
        },
        {
          "id": 204,
          "name": "notepad",
          "point": true,
          "x": 1006,
          "y": 212,
          "width": 0,
          "height": 0,
          "rotation": 0,
          "visible": true,
          "properties": [
            {
              "name": "prop",
              "type": "string",
              "value": "notepad"
            }
          ]
        },
        {
          "id": 205,
          "name": "succulent",
          "point": true,
          "x": 848,
          "y": 264,
          "width": 0,
          "height": 0,
          "rotation": 0,
          "visible": true,
          "properties": [
            {
              "name": "prop",
              "type": "string",
              "value": "succulent"
            }
          ]
        },
        {
          "id": 206,
          "name": "books",
          "point": true,
          "x": 528,
          "y": 58,
          "width": 0,
          "height": 0,
          "rotation": 0,
          "visible": true,
          "properties": [
            {
              "name": "prop",
              "type": "string",
              "value": "books"
            }
          ]
        },
        {
          "id": 207,
          "name": "terrarium",
          "point": true,
          "x": 752,
          "y": 58,
          "width": 0,
          "height": 0,
          "rotation": 0,
          "visible": true,
          "properties": [
            {
              "name": "prop",
              "type": "string",
              "value": "terrarium"
            }
          ]
        },
        {
          "id": 208,
          "name": "monitor",
          "point": true,
          "x": 158,
          "y": 463,
          "width": 0,
          "height": 0,
          "rotation": 0,
          "visible": true,
          "properties": [
            {
              "name": "prop",
              "type": "string",
              "value": "monitor"
            },
            {
              "name": "surface",
              "type": "string",
              "value": "desk-1"
            }
          ]
        },
        {
          "id": 209,
          "name": "keyboard",
          "point": true,
          "x": 160,
          "y": 470,
          "width": 0,
          "height": 0,
          "rotation": 0,
          "visible": true,
          "properties": [
            {
              "name": "prop",
              "type": "string",
              "value": "keyboard"
            },
            {
              "name": "surface",
              "type": "string",
              "value": "desk-1"
            }
          ]
        },
        {
          "id": 210,
          "name": "mug",
          "point": true,
          "x": 140,
          "y": 469,
          "width": 0,
          "height": 0,
          "rotation": 0,
          "visible": true,
          "properties": [
            {
              "name": "prop",
              "type": "string",
              "value": "mug"
            },
            {
              "name": "surface",
              "type": "string",
              "value": "desk-1"
            }
          ]
        },
        {
          "id": 211,
          "name": "lamp",
          "point": true,
          "x": 186,
          "y": 464,
          "width": 0,
          "height": 0,
          "rotation": 0,
          "visible": true,
          "properties": [
            {
              "name": "prop",
              "type": "string",
              "value": "lamp"
            },
            {
              "name": "surface",
              "type": "string",
              "value": "desk-1"
            }
          ]
        },
        {
          "id": 212,
          "name": "laptop",
          "point": true,
          "x": 378,
          "y": 466,
          "width": 0,
          "height": 0,
          "rotation": 0,
          "visible": true,
          "properties": [
            {
              "name": "prop",
              "type": "string",
              "value": "laptop"
            },
            {
              "name": "surface",
              "type": "string",
              "value": "desk-2"
            }
          ]
        },
        {
          "id": 213,
          "name": "succulent",
          "point": true,
          "x": 404,
          "y": 469,
          "width": 0,
          "height": 0,
          "rotation": 0,
          "visible": true,
          "properties": [
            {
              "name": "prop",
              "type": "string",
              "value": "succulent"
            },
            {
              "name": "surface",
              "type": "string",
              "value": "desk-2"
            }
          ]
        },
        {
          "id": 214,
          "name": "notepad",
          "point": true,
          "x": 364,
          "y": 470,
          "width": 0,
          "height": 0,
          "rotation": 0,
          "visible": true,
          "properties": [
            {
              "name": "prop",
              "type": "string",
              "value": "notepad"
            },
            {
              "name": "surface",
              "type": "string",
              "value": "desk-2"
            }
          ]
        },
        {
          "id": 215,
          "name": "monitor",
          "point": true,
          "x": 834,
          "y": 463,
          "width": 0,
          "height": 0,
          "rotation": 0,
          "visible": true,
          "properties": [
            {
              "name": "prop",
              "type": "string",
              "value": "monitor"
            },
            {
              "name": "surface",
              "type": "string",
              "value": "desk-3"
            }
          ]
        },
        {
          "id": 216,
          "name": "pencils",
          "point": true,
          "x": 812,
          "y": 468,
          "width": 0,
          "height": 0,
          "rotation": 0,
          "visible": true,
          "properties": [
            {
              "name": "prop",
              "type": "string",
              "value": "pencils"
            },
            {
              "name": "surface",
              "type": "string",
              "value": "desk-3"
            }
          ]
        },
        {
          "id": 217,
          "name": "photo",
          "point": true,
          "x": 856,
          "y": 467,
          "width": 0,
          "height": 0,
          "rotation": 0,
          "visible": true,
          "properties": [
            {
              "name": "prop",
              "type": "string",
              "value": "photo"
            },
            {
              "name": "surface",
              "type": "string",
              "value": "desk-3"
            }
          ]
        },
        {
          "id": 218,
          "name": "lamp",
          "point": true,
          "x": 858,
          "y": 464,
          "width": 0,
          "height": 0,
          "rotation": 0,
          "visible": true,
          "properties": [
            {
              "name": "prop",
              "type": "string",
              "value": "lamp"
            },
            {
              "name": "surface",
              "type": "string",
              "value": "desk-3"
            }
          ]
        },
        {
          "id": 219,
          "name": "laptop",
          "point": true,
          "x": 1052,
          "y": 466,
          "width": 0,
          "height": 0,
          "rotation": 0,
          "visible": true,
          "properties": [
            {
              "name": "prop",
              "type": "string",
              "value": "laptop"
            },
            {
              "name": "surface",
              "type": "string",
              "value": "desk-4"
            }
          ]
        },
        {
          "id": 220,
          "name": "cat",
          "point": true,
          "x": 1078,
          "y": 469,
          "width": 0,
          "height": 0,
          "rotation": 0,
          "visible": true,
          "properties": [
            {
              "name": "prop",
              "type": "string",
              "value": "cat"
            },
            {
              "name": "surface",
              "type": "string",
              "value": "desk-4"
            }
          ]
        },
        {
          "id": 221,
          "name": "mug",
          "point": true,
          "x": 1034,
          "y": 469,
          "width": 0,
          "height": 0,
          "rotation": 0,
          "visible": true,
          "properties": [
            {
              "name": "prop",
              "type": "string",
              "value": "mug"
            },
            {
              "name": "surface",
              "type": "string",
              "value": "desk-4"
            }
          ]
        },
        {
          "id": 222,
          "name": "monitor",
          "point": true,
          "x": 158,
          "y": 655,
          "width": 0,
          "height": 0,
          "rotation": 0,
          "visible": true,
          "properties": [
            {
              "name": "prop",
              "type": "string",
              "value": "monitor"
            },
            {
              "name": "surface",
              "type": "string",
              "value": "desk-5"
            }
          ]
        },
        {
          "id": 223,
          "name": "cactus",
          "point": true,
          "x": 138,
          "y": 659,
          "width": 0,
          "height": 0,
          "rotation": 0,
          "visible": true,
          "properties": [
            {
              "name": "prop",
              "type": "string",
              "value": "cactus"
            },
            {
              "name": "surface",
              "type": "string",
              "value": "desk-5"
            }
          ]
        },
        {
          "id": 224,
          "name": "stickies",
          "point": true,
          "x": 182,
          "y": 662,
          "width": 0,
          "height": 0,
          "rotation": 0,
          "visible": true,
          "properties": [
            {
              "name": "prop",
              "type": "string",
              "value": "stickies"
            },
            {
              "name": "surface",
              "type": "string",
              "value": "desk-5"
            }
          ]
        },
        {
          "id": 225,
          "name": "lamp",
          "point": true,
          "x": 186,
          "y": 656,
          "width": 0,
          "height": 0,
          "rotation": 0,
          "visible": true,
          "properties": [
            {
              "name": "prop",
              "type": "string",
              "value": "lamp"
            },
            {
              "name": "surface",
              "type": "string",
              "value": "desk-5"
            }
          ]
        },
        {
          "id": 226,
          "name": "laptop",
          "point": true,
          "x": 378,
          "y": 658,
          "width": 0,
          "height": 0,
          "rotation": 0,
          "visible": true,
          "properties": [
            {
              "name": "prop",
              "type": "string",
              "value": "laptop"
            },
            {
              "name": "surface",
              "type": "string",
              "value": "desk-6"
            }
          ]
        },
        {
          "id": 227,
          "name": "headphones",
          "point": true,
          "x": 406,
          "y": 660,
          "width": 0,
          "height": 0,
          "rotation": 0,
          "visible": true,
          "properties": [
            {
              "name": "prop",
              "type": "string",
              "value": "headphones"
            },
            {
              "name": "surface",
              "type": "string",
              "value": "desk-6"
            }
          ]
        },
        {
          "id": 228,
          "name": "books",
          "point": true,
          "x": 362,
          "y": 662,
          "width": 0,
          "height": 0,
          "rotation": 0,
          "visible": true,
          "properties": [
            {
              "name": "prop",
              "type": "string",
              "value": "books"
            },
            {
              "name": "surface",
              "type": "string",
              "value": "desk-6"
            }
          ]
        },
        {
          "id": 229,
          "name": "monitor",
          "point": true,
          "x": 832,
          "y": 655,
          "width": 0,
          "height": 0,
          "rotation": 0,
          "visible": true,
          "properties": [
            {
              "name": "prop",
              "type": "string",
              "value": "monitor"
            },
            {
              "name": "surface",
              "type": "string",
              "value": "desk-7"
            }
          ]
        },
        {
          "id": 230,
          "name": "duck",
          "point": true,
          "x": 812,
          "y": 662,
          "width": 0,
          "height": 0,
          "rotation": 0,
          "visible": true,
          "properties": [
            {
              "name": "prop",
              "type": "string",
              "value": "duck"
            },
            {
              "name": "surface",
              "type": "string",
              "value": "desk-7"
            }
          ]
        },
        {
          "id": 231,
          "name": "terrarium",
          "point": true,
          "x": 854,
          "y": 660,
          "width": 0,
          "height": 0,
          "rotation": 0,
          "visible": true,
          "properties": [
            {
              "name": "prop",
              "type": "string",
              "value": "terrarium"
            },
            {
              "name": "surface",
              "type": "string",
              "value": "desk-7"
            }
          ]
        },
        {
          "id": 232,
          "name": "lamp",
          "point": true,
          "x": 858,
          "y": 656,
          "width": 0,
          "height": 0,
          "rotation": 0,
          "visible": true,
          "properties": [
            {
              "name": "prop",
              "type": "string",
              "value": "lamp"
            },
            {
              "name": "surface",
              "type": "string",
              "value": "desk-7"
            }
          ]
        },
        {
          "id": 233,
          "name": "laptop",
          "point": true,
          "x": 1052,
          "y": 658,
          "width": 0,
          "height": 0,
          "rotation": 0,
          "visible": true,
          "properties": [
            {
              "name": "prop",
              "type": "string",
              "value": "laptop"
            },
            {
              "name": "surface",
              "type": "string",
              "value": "desk-8"
            }
          ]
        },
        {
          "id": 234,
          "name": "trophy",
          "point": true,
          "x": 1078,
          "y": 660,
          "width": 0,
          "height": 0,
          "rotation": 0,
          "visible": true,
          "properties": [
            {
              "name": "prop",
              "type": "string",
              "value": "trophy"
            },
            {
              "name": "surface",
              "type": "string",
              "value": "desk-8"
            }
          ]
        },
        {
          "id": 235,
          "name": "speaker",
          "point": true,
          "x": 1034,
          "y": 661,
          "width": 0,
          "height": 0,
          "rotation": 0,
          "visible": true,
          "properties": [
            {
              "name": "prop",
              "type": "string",
              "value": "speaker"
            },
            {
              "name": "surface",
              "type": "string",
              "value": "desk-8"
            }
          ]
        },
        {
          "id": 236,
          "name": "mug",
          "point": true,
          "x": 620,
          "y": 814,
          "width": 0,
          "height": 0,
          "rotation": 0,
          "visible": true,
          "properties": [
            {
              "name": "prop",
              "type": "string",
              "value": "mug"
            }
          ]
        },
        {
          "id": 237,
          "name": "mug",
          "point": true,
          "x": 638,
          "y": 812,
          "width": 0,
          "height": 0,
          "rotation": 0,
          "visible": true,
          "properties": [
            {
              "name": "prop",
              "type": "string",
              "value": "mug"
            }
          ]
        },
        {
          "id": 238,
          "name": "succulent",
          "point": true,
          "x": 720,
          "y": 808,
          "width": 0,
          "height": 0,
          "rotation": 0,
          "visible": true,
          "properties": [
            {
              "name": "prop",
              "type": "string",
              "value": "succulent"
            }
          ]
        }
      ]
    },
    {
      "id": 7,
      "name": "spawn",
      "type": "objectgroup",
      "draworder": "topdown",
      "opacity": 1,
      "visible": true,
      "objects": [
        {
          "id": 99,
          "name": "spawn",
          "point": true,
          "x": 656,
          "y": 656,
          "width": 0,
          "height": 0,
          "rotation": 0,
          "visible": true
        }
      ]
    },
    {
      "id": 8,
      "name": "surfaces",
      "type": "objectgroup",
      "draworder": "topdown",
      "opacity": 1,
      "visible": false,
      "objects": [
        {
          "id": 300,
          "name": "desk-1",
          "x": 131,
          "y": 457,
          "width": 58,
          "height": 13,
          "rotation": 0,
          "visible": true,
          "properties": [
            {
              "name": "surfaceId",
              "type": "string",
              "value": "desk-1"
            }
          ]
        },
        {
          "id": 301,
          "name": "desk-2",
          "x": 355,
          "y": 457,
          "width": 58,
          "height": 13,
          "rotation": 0,
          "visible": true,
          "properties": [
            {
              "name": "surfaceId",
              "type": "string",
              "value": "desk-2"
            }
          ]
        },
        {
          "id": 302,
          "name": "desk-3",
          "x": 803,
          "y": 457,
          "width": 58,
          "height": 13,
          "rotation": 0,
          "visible": true,
          "properties": [
            {
              "name": "surfaceId",
              "type": "string",
              "value": "desk-3"
            }
          ]
        },
        {
          "id": 303,
          "name": "desk-4",
          "x": 1027,
          "y": 457,
          "width": 58,
          "height": 13,
          "rotation": 0,
          "visible": true,
          "properties": [
            {
              "name": "surfaceId",
              "type": "string",
              "value": "desk-4"
            }
          ]
        },
        {
          "id": 304,
          "name": "desk-5",
          "x": 131,
          "y": 649,
          "width": 58,
          "height": 13,
          "rotation": 0,
          "visible": true,
          "properties": [
            {
              "name": "surfaceId",
              "type": "string",
              "value": "desk-5"
            }
          ]
        },
        {
          "id": 305,
          "name": "desk-6",
          "x": 355,
          "y": 649,
          "width": 58,
          "height": 13,
          "rotation": 0,
          "visible": true,
          "properties": [
            {
              "name": "surfaceId",
              "type": "string",
              "value": "desk-6"
            }
          ]
        },
        {
          "id": 306,
          "name": "desk-7",
          "x": 803,
          "y": 649,
          "width": 58,
          "height": 13,
          "rotation": 0,
          "visible": true,
          "properties": [
            {
              "name": "surfaceId",
              "type": "string",
              "value": "desk-7"
            }
          ]
        },
        {
          "id": 307,
          "name": "desk-8",
          "x": 1027,
          "y": 649,
          "width": 58,
          "height": 13,
          "rotation": 0,
          "visible": true,
          "properties": [
            {
              "name": "surfaceId",
              "type": "string",
              "value": "desk-8"
            }
          ]
        }
      ]
    }
  ]
}
